dist/icons/svgs/xmark-circle-outline.svg

<svg xmlns="http://www.w3.org/2000/svg" width="24" height="24" fill="currentcolor" class="icon-xmark-circle-outline" viewBox="0 0 24 24">
  <path d="M12 3.875C9.07031 3.875 6.41406 5.4375 4.92969 7.9375C3.48438 10.4766 3.48438 13.5625 4.92969 16.0625C6.41406 18.6016 9.07031 20.125 12 20.125C14.8906 20.125 17.5469 18.6016 19.0312 16.0625C20.4766 13.5625 20.4766 10.4766 19.0312 7.9375C17.5469 5.4375 14.8906 3.875 12 3.875ZM12 22C8.40625 22 5.125 20.125 3.32812 17C1.53125 13.9141 1.53125 10.125 3.32812 7C5.125 3.91406 8.40625 2 12 2C15.5547 2 18.8359 3.91406 20.6328 7C22.4297 10.125 22.4297 13.9141 20.6328 17C18.8359 20.125 15.5547 22 12 22ZM8.83594 8.83594C9.1875 8.48438 9.77344 8.48438 10.125 8.83594L11.9609 10.6719L13.7969 8.83594C14.1875 8.48438 14.7734 8.48438 15.125 8.83594C15.5156 9.22656 15.5156 9.8125 15.125 10.1641L13.2891 12L15.125 13.8359C15.5156 14.2266 15.5156 14.8125 15.125 15.1641C14.7734 15.5547 14.1875 15.5547 13.7969 15.1641L11.9609 13.3281L10.125 15.1641C9.77344 15.5547 9.1875 15.5547 8.83594 15.1641C8.44531 14.8125 8.44531 14.2266 8.83594 13.8359L10.6719 12L8.83594 10.1641C8.44531 9.8125 8.44531 9.22656 8.83594 8.83594Z"/>
</svg>

<svg xmlns="http://www.w3.org/2000/svg" width="24" height="24" fill="currentColor" class="icon-xmark-circle-outline" viewBox="0 0 24 24">
  <path d="M12 3.875c-2.93 0-5.586 1.563-7.07 4.063-1.446 2.539-1.446 5.625 0 8.125A8.13 8.13 0 0 0 12 20.125c2.89 0 5.547-1.523 7.031-4.062 1.446-2.5 1.446-5.586 0-8.125-1.484-2.5-4.14-4.063-7.031-4.063M12 22c-3.594 0-6.875-1.875-8.672-5-1.797-3.086-1.797-6.875 0-10C5.125 3.914 8.406 2 12 2c3.555 0 6.836 1.914 8.633 5 1.797 3.125 1.797 6.914 0 10A9.93 9.93 0 0 1 12 22M8.836 8.836a.92.92 0 0 1 1.289 0l1.836 1.836 1.836-1.836c.39-.352.976-.352 1.328 0 .39.39.39.976 0 1.328L13.289 12l1.836 1.836c.39.39.39.976 0 1.328-.352.39-.937.39-1.328 0l-1.836-1.836-1.836 1.836a.856.856 0 0 1-1.29 0c-.39-.351-.39-.937 0-1.328L10.673 12l-1.836-1.836c-.39-.351-.39-.937 0-1.328"/>
</svg>
